!!!SOCIAL_FUNCTION:	songs connected with ceremonies
!!!PDT:	1929
!!!OTL: No_105_Song_Concerning_the_Lost_Children.krn
!!!REG: Southwest
!!!LANG: Non-Tone
!!!LING_GROUP: Uto-Aztecan
**kern
*staff1
=1-
*clefF4
*k[b-e-a-]
*M2/4
4B-\
8B-\L
8B-\J
=2
4B-\
4B-\
=3
4.A-\
8E-\
=4||
*M3/4
4F\
4E-\
4E-\
=5||
*M2/4
4.A-\
8E-\
=6||
*M3/4
4F\
4E-\
4E-\
=7
2E-\
8BB-/
8r
=8
4.E-\
8AA-/
4AA-/
=9
2BB-/
4BB-/
=10||
*M2/4
4AA-/
8FF/L
8EE-/J
=11||
*M3/4
2.EE-/
=12||
*M2/4
4F\
4F\
=13
4F\
8F\L
8E-\J
=14
8.F\L
16E-\Jk
4E-\
=15
4BB-/
8BB-/
8r
=16||
*M3/4
4.E-\
8D-\
4F\
=17||
*M2/4
4E-\
4D-\
=18||
*M3/4
16BB-/LK
[8.AA-/J
4AA-/]
8AA-/L
8AA-/J
=19
2.BB-/
=20
4BB-/
2r
==
*-
